image/logo/logo-icon.svg

<svg width="128" height="96" version="1.1" viewBox="0 0 128 96" xmlns="http://www.w3.org/2000/svg"><path d="m36 32c0-16 12-28 28-28s28 12 28 28c0 8-2 12-2 12s-2 6.25-2 8.125 1 3.875 3 5.875 3 2.5 5 3h1e-4c2 0.5 3.9999 1 5.9999 0 1-0.5 2-1.375 3-2.25s2-1.75 3-2.25c2-1 3.5-1.5 6-1.5s7 2 7 5-1 5-4 7c-2 1.5-3.5 1-4 0.5s-1-1.5-1-1.5 2 0 3-0.5 2-2 2-4-1-2.5-3-2.5-4 1-7 4-4.5 4-6 4.5-4.5 0.5-7-0.5-7-3-7-3 2 3 3 7 7 5 9.5 5 7-0.5 8.5-2 1.5-3 1.5-3l0.5 1s0.5 1.5-0.5 3.5-5.5 3.5-10 4-9 0.5-11.5-1.5c-1.2978-1.0382-1.7871-2.3459-2.3773-3.9231-0.5467-1.461-1.18-3.1533-2.6227-5.0769-2.3858-3.1811-2.8743-3.8323-3.4772-3.9657-0.1553-0.0343-0.3181-0.0343-0.5228-0.0343-1 0-2 0-2 1.5 0 0.4035 0.0724 0.8432 0.1587 1.3678 0.2346 1.4253 0.5723 3.4772-0.1587 7.1322-0.1065 0.5324-0.213 1.0478-0.3158 1.5456l-5e-4 0.0023-8e-4 0.0039-2e-4 0.0011c-0.8624 4.1732-1.4687 7.1076 0.3173 8.4471 1.568 1.176 3.136 1.1227 5.4269 1.0448 0.6311-0.0215 1.3171-0.0448 2.0731-0.0448 3.5 0 7-2 7-2s3.5-2 7.5-2 7.5 2.5 7.5 2.5 2 1 5.5 1 7-4.5 7-4.5 1.5 0 1.5 1-0.5 3-2.5 5c-0.292 0.2918-0.562 0.5836-0.827 0.8692-1.55 1.6718-2.902 3.1308-7.173 3.1308-2.5 0-4-0.75-5.5-1.5s-3-1.5-5.5-1.5c-2.9912 0-4.5509 1.2526-6.0706 2.4732-1.0206 0.8198-2.0233 1.625-3.4294 2.0268-1.6076 0.4593-2.8987 0.2857-4.2126 0.1091-1.5466-0.208-3.1246-0.4201-5.2874 0.3909-4 1.5-6.5 1-9 0s-5-3.5-5-6c0-1.1931 0.2277-2.1584 0.4659-3.1677 0.2608-1.1056 0.5341-2.264 0.5341-3.8323 0-1.5684-0.2733-2.8634-0.5341-4.0994-0.2382-1.1284-0.4659-2.2076-0.4659-3.4006v-4.5c0-2-1-2-1-2h-2l-1 2s-1 4 0 10-0.5 10-0.5 10-2 4-7 5-6.5 0.5-10.5-1c-2.7335-1.0251-4.066-1.8166-5.2741-2.5343-0.5597-0.3325-1.0927-0.6491-1.7259-0.9657-2-1-5.5-2-8-2-2.1353 0-3.541 0.7295-5.1519 1.5654-0.2752 0.1428-0.5563 0.2887-0.8481 0.4346-2 1-6.5 2-9.5 1.5s-4-1.5-5.5-3-2-3-2-4 0.5-2 0.5-2 1 0 1.5 1c0.07602 0.152 0.14049 0.3041 0.20569 0.4579l3e-5 1e-4c0.36366 0.8577 0.75049 1.7701 3.2943 3.042 3 1.5 6.5 1 9.5-1.5s5.5-3 8-3 6 0.5 9.5 2.5 8 3.5 9.5 3.5 3.5-0.5 4.5-2 1.5-3.5 1-6-0.5-3-0.5-5 1-6.5 1-6.5-2 3.5-4 4.5c-0.3246 0.1623-0.6754 0.3246-1.0356 0.4911-1.8591 0.8598-3.9644 1.8335-3.9644 3.5089 0 2 2 3 4 2 1 1-0.5 3-2 3.5s-3.5 0-3.5 0c-2.7324-1.7992-3.631-4.2374-2.5-7.5l4.5-7c1.3743-1.9413 1.4258-2.4981-0.5-2-3.8706 3.1725-6.2716 4.6073-11 6.5-4.4646 1.72-7.5311 2.0505-14 1.5-4.279-0.5754-6.5-1.5-9-4s-2.5-5.5-2-8.5 4-5.5 6-5.5c1.959 0 3.2761 0.6922 3.958 2.3919 0.1879 1.5095-0.0451 1.9427-0.958 2.1081-0.8004-2.19-2-2.5-3.5-2s-2 1.5-2.5 3-0.5 5 2.5 7c6.5 3.5 13.5 0.5 20.5-5.5 1.5-1.2857 3-3 4-5s1-2.75 1-4.875-2-8.125-2-8.125-2-4-2-12zm-17.03 25.423-0.0124-0.0311-2e-4 -0.0015 0.0126 0.0326zm0 0 0.0151 0.0388 0.0145 0.0382-0.0296-0.077zm62.03-13.423c0 4.4183-2.2386 8-5 8s-5-3.5817-5-8 2.2386-8 5-8 5 3.5817 5 8zm-29 8c2.7614 0 5-2.2386 5-5s-2.2386-5-5-5-5 2.2386-5 5 2.2386 5 5 5zm8-14v-0.5c-0.2125 0-0.3347 0-0.4433 0.0384-0.147 0.0519-0.2692 0.1741-0.5567 0.4616-0.5 0.5-1 1-4.5-1-0.2188-0.1459-0.427-0.2917-0.6307-0.4345l-1e-4 -1e-4c-1.1929-0.8359-2.2339-1.5654-4.3692-1.5654-1.5 0-3.5 1-4.5 2s-2.5 1-2.5 1 0 1 1.5 1c0.6547 0 1.2142-0.3811 1.8448-0.8105 0.814-0.5544 1.7464-1.1895 3.1552-1.1895 2.1353 0 3.541 0.7295 5.1519 1.5654l2e-4 1e-4c0.2751 0.1428 0.5562 0.2886 0.8479 0.4345 1.1875 0.5937 1.6699 0.8349 2.1798 0.9329 0.349 0.0671 0.7108 0.0671 1.3202 0.0671 1.5 0 1.5-2 1.5-2zm12-7.5s1 0.5 4-1.5 4-2 5.5-2 2.5 1 3.5 2c0.7133 0.7133 0.9178 0.9178 1.1579 0.9764 0.0965 0.0236 0.1988 0.0236 0.3421 0.0236 0.5 0 0.5-1 0.5-1s-1-0.5-2.5-2-2.5-2-4.5-2-4 2-4 2l-2 1.5s-0.5 0.5-2 0.5-3-0.5-3-0.5v0.5s0 0.5 1 1 2 0.5 2 0.5z" clip-rule="evenodd" fill-rule="evenodd"/><path d="m100 12c-4 4-7 6-7 6s3 6 3 14-3 15-3 15l-1 4 1 2s2.5-7 5-7 6 7 6 7 3.5-15 10-15 12 4 12 4-5-10-9-22-4-17-5-17.5-1-0.5-2-0.5-6 6-10 10z"/><path d="m28 12c4 4 7 6 7 6s-3 6-3 14 3 15 3 15l1 4-1 2s-2.5-7-5-7-6 7-6 7-3.5-15-10-15-12 4-12 4 5-10 9-22 4-17 5-17.5 1-0.5 2-0.5 6 6 10 10z"/></svg>

<svg width="128" height="96" viewBox="0 0 128 96" fill="none" xmlns="http://www.w3.org/2000/svg"><path fill-rule="evenodd" clip-rule="evenodd" d="M36 32C36 16 48 4 64 4C80 4 92 16 92 32C92 40 90 44 90 44C90 44 88 50.25 88 52.125C88 54 89 56 91 58C93 60 94 60.5 96 61L96.0001 61C98.0001 61.5 100 62 102 61C103 60.5 104 59.625 105 58.75C106 57.875 107 57 108 56.5C110 55.5 111.5 55 114 55C116.5 55 121 57 121 60C121 63 120 65 117 67C115 68.5 113.5 68 113 67.5C112.5 67 112 66 112 66C112 66 114 66 115 65.5C116 65 117 63.5 117 61.5C117 59.5 116 59 114 59C112 59 110 60 107 63C104 66 102.5 67 101 67.5C99.5 68 96.5 68 94 67C91.5 66 87 64 87 64C87 64 89 67 90 71C91 75 97 76 99.5 76C102 76 106.5 75.5 108 74C109.5 72.5 109.5 71 109.5 71L110 72C110 72 110.5 73.5 109.5 75.5C108.5 77.5 104 79 99.5 79.5C95 80 90.5 80 88 78C86.7022 76.9618 86.2129 75.6541 85.6227 74.0769C85.076 72.6159 84.4427 70.9236 83 69C80.6142 65.8189 80.1257 65.1677 79.5228 65.0343C79.3675 65 79.2047 65 79 65C78 65 77 65 77 66.5C77 66.9035 77.0724 67.3432 77.1587 67.8678C77.3933 69.2931 77.731 71.345 77 75C76.8935 75.5324 76.787 76.0478 76.6842 76.5456L76.6837 76.5479L76.6829 76.5518L76.6827 76.5529C75.8203 80.7261 75.214 83.6605 77 85C78.568 86.176 80.136 86.1227 82.4269 86.0448C83.058 86.0233 83.744 86 84.5 86C88 86 91.5 84 91.5 84C91.5 84 95 82 99 82C103 82 106.5 84.5 106.5 84.5C106.5 84.5 108.5 85.5 112 85.5C115.5 85.5 119 81 119 81C119 81 120.5 81 120.5 82C120.5 83 120 85 118 87C117.708 87.2918 117.438 87.5836 117.173 87.8692C115.623 89.541 114.271 91 110 91C107.5 91 106 90.25 104.5 89.5C103 88.75 101.5 88 99 88C96.0088 88 94.4491 89.2526 92.9294 90.4732C91.9088 91.293 90.9061 92.0982 89.5 92.5C87.8924 92.9593 86.6013 92.7857 85.2874 92.6091C83.7408 92.4011 82.1628 92.189 80 93C76 94.5 73.5 94 71 93C68.5 92 66 89.5 66 87C66 85.8069 66.2277 84.8416 66.4659 83.8323C66.7267 82.7267 67 81.5683 67 80C67 78.4316 66.7267 77.1366 66.4659 75.9006C66.2277 74.7722 66 73.693 66 72.5V68C66 66 65 66 65 66L63 66L62 68C62 68 61 72 62 78C63 84 61.5 88 61.5 88C61.5 88 59.5 92 54.5 93C49.5 94 48 93.5 44 92C41.2665 90.9749 39.934 90.1834 38.7259 89.4657C38.1662 89.1332 37.6332 88.8166 37 88.5C35 87.5 31.5 86.5 29 86.5C26.8647 86.5 25.459 87.2295 23.8481 88.0654C23.5729 88.2082 23.2918 88.3541 23 88.5C21 89.5 16.5 90.5 13.5 90C10.5 89.5 9.5 88.5 8 87C6.5 85.5 6 84 6 83C6 82 6.5 81 6.5 81C6.5 81 7.5 81 8 82C8.07602 82.152 8.14049 82.3041 8.20569 82.4579L8.20572 82.458C8.56938 83.3157 8.95621 84.2281 11.5 85.5C14.5 87 18 86.5 21 84C24 81.5 26.5 81 29 81C31.5 81 35 81.5 38.5 83.5C42 85.5 46.5 87 48 87C49.5 87 51.5 86.5 52.5 85C53.5 83.5 54 81.5 53.5 79C53 76.5 53 76 53 74C53 72 54 67.5 54 67.5C54 67.5 52 71 50 72C49.6754 72.1623 49.3246 72.3246 48.9644 72.4911C47.1053 73.3509 45 74.3246 45 76C45 78 47 79 49 78C50 79 48.5 81 47 81.5C45.5 82 43.5 81.5 43.5 81.5C40.7676 79.7008 39.869 77.2626 41 74L45.5 67C46.8743 65.0587 46.9258 64.5019 45 65C41.1294 68.1725 38.7284 69.6073 34 71.5C29.5354 73.22 26.4689 73.5505 20 73C15.721 72.4246 13.5 71.5 11 69C8.5 66.5 8.5 63.5 9 60.5C9.5 57.5 13 55 15 55C16.959 55 18.2761 55.6922 18.958 57.3919C19.1459 58.9014 18.9129 59.3346 18 59.5C17.1996 57.31 16 57 14.5 57.5C13 58 12.5 59 12 60.5C11.5 62 11.5 65.5 14.5 67.5C21 71 28 68 35 62C36.5 60.7143 38 59 39 57C40 55 40 54.25 40 52.125C40 50 38 44 38 44C38 44 36 40 36 32ZM18.9704 57.423L18.958 57.3919L18.9578 57.3904L18.9704 57.423ZM18.9704 57.423L18.9855 57.4618L19 57.5L18.9704 57.423ZM81 44C81 48.4183 78.7614 52 76 52C73.2386 52 71 48.4183 71 44C71 39.5817 73.2386 36 76 36C78.7614 36 81 39.5817 81 44ZM52 52C54.7614 52 57 49.7614 57 47C57 44.2386 54.7614 42 52 42C49.2386 42 47 44.2386 47 47C47 49.7614 49.2386 52 52 52ZM60 38V37.5C59.7875 37.5 59.6653 37.5 59.5567 37.5384C59.4097 37.5903 59.2875 37.7125 59 38C58.5 38.5 58 39 54.5 37C54.2812 36.8541 54.073 36.7083 53.8693 36.5655L53.8692 36.5654C52.6763 35.7295 51.6353 35 49.5 35C48 35 46 36 45 37C44 38 42.5 38 42.5 38C42.5 38 42.5 39 44 39C44.6547 39 45.2142 38.6189 45.8448 38.1895C46.6588 37.6351 47.5912 37 49 37C51.1353 37 52.541 37.7295 54.1519 38.5654L54.1521 38.5655C54.4272 38.7083 54.7083 38.8541 55 39C56.1875 39.5937 56.6699 39.8349 57.1798 39.9329C57.5288 40 57.8906 40 58.5 40C60 40 60 38 60 38ZM72 30.5C72 30.5 73 31 76 29C79 27 80 27 81.5 27C83 27 84 28 85 29C85.7133 29.7133 85.9178 29.9178 86.1579 29.9764C86.2544 30 86.3567 30 86.5 30C87 30 87 29 87 29C87 29 86 28.5 84.5 27C83 25.5 82 25 80 25C78 25 76 27 76 27L74 28.5C74 28.5 73.5 29 72 29C70.5 29 69 28.5 69 28.5V29C69 29 69 29.5 70 30C71 30.5 72 30.5 72 30.5Z" fill="black"/><path d="M100 12C96 16 93 18 93 18C93 18 96 24 96 32C96 40 93 47 93 47L92 51L93 53C93 53 95.5 46 98 46C100.5 46 104 53 104 53C104 53 107.5 38 114 38C120.5 38 126 42 126 42C126 42 121 32 117 20C113 8 113 3 112 2.5C111 2 111 2 110 2C109 2 104 8 100 12Z" fill="black"/><path d="M28 12C32 16 35 18 35 18C35 18 32 24 32 32C32 40 35 47 35 47L36 51L35 53C35 53 32.5 46 30 46C27.5 46 24 53 24 53C24 53 20.5 38 14 38C7.5 38 2 42 2 42C2 42 7 32 11 20C15 8 15 3 16 2.5C17 2 17 2 18 2C19 2 24 8 28 12Z" fill="black"/></svg>
